X:278
T:Steirer (76.)
C:traditionell
A:Salzkammergut
S:MIDI erhalten von Christian Amon. Nach einer kopie im besitz von Johann Stoeckl eines manuscriptes. Stoeckl(zitiert von Amon): "diese sammlung wurde 1935 im hause der familie Hohenlohe-Schillingfuerst gefunden. Sie wurde von einem der beiden brueder Steinegger 1866 verfasst. Die originale sind im Ausseer Kammerhofmuseum".
M:3/4
L:1/8
K:G
V:1
{d}gf |\
e3 d cF | G3 B gf | F3 A gf | G3 B gf |\
e3 d cF | G3 B db | c'/z c'/ fd cF | G4 |*
V:2
{a}ba |\
g3 f eA | B3 d ba | A3 c ba | B3 d ba |\
g3 f eA | B3 d gd' | e'/z c'/ af dA B4 |*
